Sources/FrostedUI/Resources/Icons.xcassets/sad16.imageset/sad-16.svg

<svg width="16" height="16" viewBox="0 0 16 16" fill="none" xmlns="http://www.w3.org/2000/svg" data-fui-icon="true">
  <g clip-path="url(#clip0_882_983)">
    <path
      d="M8 0C12.4183 0 16 3.58172 16 8C16 12.4183 12.4183 16 8 16C3.58172 16 0 12.4183 0 8C0 3.58172 3.58172 0 8 0ZM8 1.5C4.41015 1.5 1.5 4.41015 1.5 8C1.5 11.5899 4.41015 14.5 8 14.5C11.5899 14.5 14.5 11.5899 14.5 8C14.5 4.41015 11.5899 1.5 8 1.5ZM8 9.5C9.20597 9.5 10.0618 9.95797 10.6133 10.4307C10.8849 10.6635 11.0805 10.897 11.21 11.0762C11.2749 11.1661 11.3238 11.2436 11.3584 11.3018C11.3757 11.3309 11.3891 11.356 11.3994 11.375C11.4045 11.3843 11.4096 11.3918 11.4131 11.3984C11.4148 11.4018 11.4157 11.4056 11.417 11.4082C11.4176 11.4093 11.4185 11.4102 11.4189 11.4111L11.4199 11.4131C11.4201 11.4134 11.4208 11.4145 10.9004 11.6748L11.4209 11.415C11.6058 11.7854 11.4553 12.2357 11.085 12.4209C10.7146 12.6058 10.2643 12.4553 10.0791 12.085V12.0859L10.0811 12.0898C10.0817 12.091 10.0827 12.0923 10.083 12.0928C10.0833 12.0934 10.0827 12.0931 10.082 12.0918C10.0804 12.0887 10.0763 12.081 10.0693 12.0693C10.0551 12.0455 10.0297 12.0057 9.99316 11.9551C9.91949 11.8531 9.80246 11.7114 9.63672 11.5693C9.31319 11.2921 8.7939 11 8 11C7.2061 11 6.68681 11.2921 6.36328 11.5693C6.19754 11.7114 6.08051 11.8531 6.00684 11.9551C5.97025 12.0057 5.94486 12.0455 5.93066 12.0693C5.92373 12.081 5.91964 12.0887 5.91797 12.0918C5.91726 12.0931 5.91666 12.0934 5.91699 12.0928C5.91726 12.0923 5.91834 12.091 5.91895 12.0898L5.91992 12.0879V12.085C5.73475 12.4553 5.28545 12.6058 4.91504 12.4209C4.54469 12.2357 4.39416 11.7854 4.5791 11.415L5.09961 11.6748C4.59275 11.4213 4.57928 11.4146 4.5791 11.4141L4.58301 11.4082C4.58435 11.4056 4.58517 11.4018 4.58691 11.3984C4.59036 11.3918 4.59552 11.3843 4.60059 11.375C4.61093 11.356 4.62426 11.3309 4.6416 11.3018C4.67623 11.2436 4.72511 11.1661 4.79004 11.0762C4.91947 10.897 5.11506 10.6635 5.38672 10.4307C5.9382 9.95797 6.79403 9.5 8 9.5ZM5 6C5.55228 6 6 6.44772 6 7C6 7.55228 5.55228 8 5 8C4.44772 8 4 7.55228 4 7C4 6.44772 4.44772 6 5 6ZM11 6C11.5523 6 12 6.44772 12 7C12 7.55228 11.5523 8 11 8C10.4477 8 10 7.55228 10 7C10 6.44772 10.4477 6 11 6Z"
      fill="currentColor"
    />
  </g>
  <defs>
    <clipPath id="clip0_882_983"><path fill="currentColor" d="M0 0H16V16H0z" /></clipPath>
  </defs>
</svg>

<svg xmlns="http://www.w3.org/2000/svg" width="16" height="16" fill="none" data-fui-icon="true" viewBox="0 0 16 16"><g clip-path="url(#a)"><path fill="currentColor" d="M8 0a8 8 0 1 1 0 16A8 8 0 0 1 8 0m0 1.5a6.5 6.5 0 1 0 0 13 6.5 6.5 0 0 0 0-13m0 8c1.206 0 2.062.458 2.613.93.272.234.468.467.597.646.065.09.114.168.148.226q.026.044.041.073l.014.023.004.01.002.003v.002c.001 0 .002.002-.519.262l.52-.26a.75.75 0 0 1-1.34.67l.001.005.002.003-.001-.001-.013-.023a2.244 2.244 0 0 0-.433-.5C9.314 11.292 8.795 11 8 11s-1.313.292-1.637.57a2.2 2.2 0 0 0-.432.5l-.013.022h-.001l.002-.002v-.005a.75.75 0 1 1-1.34-.67l.52.26-.52-.26.004-.007.004-.01.014-.023.04-.073a3 3 0 0 1 .149-.226c.13-.179.325-.412.597-.645C5.938 9.958 6.794 9.5 8 9.5M5 6a1 1 0 1 1 0 2 1 1 0 0 1 0-2m6 0a1 1 0 1 1 0 2 1 1 0 0 1 0-2"/></g><defs><clipPath id="a"><path fill="currentColor" d="M0 0h16v16H0z"/></clipPath></defs></svg>
